!!!OTL: Das M&auml;dchen vom Lande (223), S. 406
!!!id: T0406
**kern
*clefG2
*k[f#]
*G:
{8d
=1
4g
8b
8g
=2
4e
8a}
=3
{8g
=4
4f#
8e
8f#
=5
4g}
8r
=6
{8d
=7
4g
8b
8g
=8
4e
8a}
=9
{8g
=10
4f#
8e
8f#
=11
4g}
8r
=12
{8d
=13
4g
8g
8d
=14
4a
8a}
=15
{16g
16b
=16
4dd
16dd
16cc
8b
=17
4a}
8r
=18
{8d
=19
4g
8b
8g
=20
4e
8a}
=21
{8g
=22
4f#
8e
8f#
=23
4g}
8r
=24
{8d
=25
8g
8a
8b
8cc
=26
8dd
8dd}
=27
{8ee
8cc
=28
8cc
8cc
8dd
8cc
=29
4b}
8r
=30
{8dd
=31
8g
8a
8b
8cc
=32
8dd
8dd}
=33
{8ee
8cc
=34
8cc
8cc
8dd
8cc
=35
4b}
8r
==
*-
!!!minrhy: 16
!!!meters: 2/4 ]  ZZ[12
!!!cut: Das M&auml;dchen vom Lande (223), S. 406
!!!reg: Luxemburg
!!!trd: Singendes Volk, Esch-Alzette, 1937 posth.
!!!rhy1: X_  X__X_X_  X__   (x2)
!!!rhy2: X_X_  X__X_X_  X__0
!!!key: T0406  16  G 2/4 ]  ZZ[12
!!!mod: HEPTATONIK IONISCH]  AMBITUS[9
!!!kad: -612122215353
!!!akz: 1-6_-71_1-6_-71_12_52_1-6_-71_15_43_15_43_
!!!fot: 'a__b__av_c__d__e__av_c__aw_f__aw_f__
!!!for: 'a__av_aw_av_aw_b__aw_av_c__cw_c__cw_
!!!fok: '^a_Vd_~a_V__/__^a_~a_V__/__\__V__\__
!! PHRAS[AUFTAKTIG]
!!!fkt: Berufslied
!!!bem: Junglinster, fff Sisy Minden, 27.12.1932
!! THILL; Mathias
!! PR[21] 2K[0] 2G[14] 3K[7] 3G[4] 4A[0] 4Ü[0] 5A[4] 6K[0] 6G[0]
!! 7K[0] 7G[0] 8A[0] MEHR[0] SI[29] ABS[28] SR[14] SP[14]
!! ST[7] 2k[11] 2g[39] 3k[0] 3g[0] 4d[0] 4ü[0] 5d[0] 6k[0] 6g[0]
!! 7k[0] 7g[0] 8d[0] mehr[0] si[50] dm[-21] sr[50] sp[0]
!! 1F[6] 2F[73] 3F[12] 4F[0] LF[0] 2P[0] 3P[9] 4P[0] TRI[0] DF[4] AB[33]
!! TF[0] U3K[0] U3[0] U4[0] U4Ü[0] U5[0] U6K[0] U6[0] U7K[0] U7[0]
!! N1[14] N2K[0] N2[7] N3K[0] N3[14] N4[10] N4Ü[0] N5[41] N6K[0] N6[14]
!!!n7k: 0] N7[0] O1[0] O2K[0] O2[0] O3K[0] O3[0] HÖ[0
!!!RNB: symbol: &auml;      = a umlaut  (UTF-8: Å„)
